dist/assets/images/icons/cabinet.svg

<svg width="14" height="14" viewBox="0 0 14 14" fill="none" xmlns="http://www.w3.org/2000/svg">
<path d="M8.16683 4.66675H5.8335V3.50008H8.16683V4.66675ZM11.6668 2.33341V11.6667C11.6668 12.3142 11.1477 12.8334 10.5002 12.8334H3.50016C2.85266 12.8334 2.3335 12.3142 2.3335 11.6667V2.33341C2.3335 2.024 2.45641 1.72725 2.6752 1.50846C2.894 1.28966 3.19074 1.16675 3.50016 1.16675H10.5002C10.8096 1.16675 11.1063 1.28966 11.3251 1.50846C11.5439 1.72725 11.6668 2.024 11.6668 2.33341ZM10.5002 7.58342H3.50016V11.6667H10.5002V7.58342ZM10.5002 2.33341H3.50016V6.41675H10.5002V2.33341ZM8.16683 8.75008H5.8335V9.91675H8.16683V8.75008Z" fill="#101112"/>
</svg>

<svg width="14" height="14" fill="none" xmlns="http://www.w3.org/2000/svg"><path d="M8.167 4.667H5.834V3.5h2.333v1.167zm3.5-2.334v9.334c0 .647-.52 1.166-1.167 1.166h-7a1.163 1.163 0 01-1.167-1.166V2.333A1.167 1.167 0 013.5 1.167h7a1.167 1.167 0 011.167 1.166zM10.5 7.583h-7v4.084h7V7.583zm0-5.25h-7v4.084h7V2.333zM8.167 8.75H5.834v1.167h2.333V8.75z" fill="#101112"/></svg>
